src/assets/icons/bus-itinerary-greyed.svg

<svg width="30" height="30" viewBox="0 0 30 30" fill="none" xmlns="http://www.w3.org/2000/svg">
<rect width="30" height="30" rx="15" fill="#DBDCE1"/>
<rect x="3" y="3" width="24" height="24" rx="12" fill="white" stroke="#BFBFBF"/>
<path d="M18.4825 21.9937C18.2963 21.9937 18.1043 21.9937 17.9181 21.9937C17.4817 21.9819 17.185 21.6402 17.1792 21.1394C17.1792 20.727 17.1792 20.7329 17.5283 20.6857C18.209 20.5915 18.8956 20.4913 19.5647 20.3146C19.7334 20.2674 19.8381 20.2792 19.809 20.5384C19.7857 20.7388 19.809 20.945 19.809 21.1453C19.7974 21.6519 19.5007 21.9878 19.0643 21.9996C18.8665 21.9996 18.6745 21.9996 18.4767 21.9996L18.4825 21.9937Z" fill="#BFBFBF"/>
<path d="M11.4954 21.994C11.2976 21.994 11.1056 21.9999 10.9078 21.994C10.5063 21.9763 10.2154 21.6464 10.1979 21.1809C10.1863 20.9394 10.2038 20.6919 10.1979 20.4504C10.1921 20.2854 10.2561 20.2795 10.3609 20.3031C11.0241 20.474 11.7049 20.5741 12.3798 20.6743C12.3914 20.6743 12.4089 20.6743 12.4205 20.6802C12.5543 20.6978 12.7638 20.6389 12.8103 20.7626C12.8801 20.9394 12.8569 21.1751 12.8103 21.3813C12.723 21.7465 12.467 21.9763 12.1354 21.9881C11.9259 21.994 11.7165 21.9881 11.507 21.9881L11.4954 21.994Z" fill="#BFBFBF"/>
<path d="M22.2815 10.7491C21.7695 10.7491 21.2633 10.7491 20.7513 10.7491C20.6175 10.7491 20.5709 10.7255 20.5767 10.5782C20.5884 10.1305 20.5767 9.68859 20.5767 9.24083C20.5767 9.14068 20.5651 9.08176 20.4545 9.03463C19.0524 8.45726 17.5978 8.13322 16.0851 8.03307C14.9156 7.95058 13.7578 8.02717 12.6058 8.20981C11.576 8.37478 10.5695 8.6399 9.58618 9.01696C9.464 9.06409 9.42327 9.12889 9.42327 9.2644C9.43491 9.70038 9.42327 10.1422 9.42909 10.5782C9.42909 10.7196 9.38836 10.755 9.25455 10.7491C8.74255 10.7432 8.23636 10.7491 7.72436 10.7491C7.31709 10.7491 7.01455 11.0378 7.00873 11.4443C6.99709 12.1277 6.99709 12.817 7.00873 13.5004C7.00873 13.8775 7.27055 14.1485 7.63709 14.1956C7.79418 14.2192 7.95709 14.2133 8.11418 14.1956C8.45745 14.1426 8.70182 13.8657 8.70764 13.5122C8.70764 13.3119 8.70764 13.1175 8.70764 12.9172C8.70764 12.4399 8.70764 12.4517 9.18473 12.4399C9.37673 12.4341 9.42327 12.493 9.42327 12.6815C9.41745 15.044 9.42327 17.4006 9.42327 19.7631C9.42327 20.0813 9.47564 20.152 9.784 20.2286C11.1804 20.5762 12.6 20.7529 14.0429 20.8118C16.1316 20.9002 18.1913 20.7058 20.2218 20.2168C20.5185 20.1461 20.5767 20.0695 20.5767 19.7631C20.5767 18.5907 20.5767 17.4183 20.5767 16.2459C20.5767 15.1618 20.5767 14.0837 20.5767 12.9996C20.5767 12.817 20.4953 12.5696 20.6116 12.4753C20.7222 12.381 20.9549 12.4517 21.1353 12.4399C21.2575 12.4282 21.2865 12.4753 21.2865 12.5931C21.2807 12.8995 21.2807 13.2 21.2865 13.5063C21.2924 13.8598 21.5367 14.1367 21.88 14.1956C22.0371 14.2192 22.2 14.2251 22.3571 14.2015C22.7295 14.1544 22.9855 13.8834 22.9913 13.5063C23.0029 12.8229 23.0029 12.1336 22.9913 11.4502C22.9855 11.0378 22.6771 10.755 22.2756 10.755L22.2815 10.7491ZM19.1629 16.5994C17.7782 16.9647 16.3702 17.1119 14.9389 17.0884C13.5716 17.0707 12.216 16.9057 10.8778 16.6053C10.6916 16.564 10.6218 16.5051 10.6276 16.293C10.6451 15.4329 10.6335 14.5668 10.6335 13.7066C10.6335 12.8465 10.6335 11.9804 10.6335 11.1202C10.6335 10.7609 10.7382 10.6489 11.0931 10.6489C13.6938 10.6489 16.3004 10.6489 18.9011 10.6489C19.2502 10.6489 19.3607 10.7667 19.3607 11.1143C19.3607 12.8524 19.3607 14.5904 19.3607 16.3284C19.3607 16.4992 19.3025 16.5522 19.1571 16.5935L19.1629 16.5994Z" fill="#BFBFBF"/>
<path d="M11.0506 19.496C10.5619 19.496 10.1837 19.1012 10.1895 18.6063C10.1895 18.1232 10.5793 17.7403 11.0681 17.7462C11.551 17.7462 11.9466 18.1468 11.935 18.6181C11.9292 19.1071 11.5335 19.5018 11.0506 19.496Z" fill="white"/>
<path d="M18.9394 19.496C18.439 19.496 18.055 19.1012 18.0667 18.6122C18.0725 18.1173 18.4623 17.7403 18.9627 17.7462C19.4398 17.7521 19.8121 18.1468 19.8063 18.6417C19.8063 19.1189 19.4165 19.5018 18.9394 19.496Z" fill="white"/>
</svg>

<svg xmlns="http://www.w3.org/2000/svg" width="30" height="30" fill="none" viewBox="0 0 30 30">
  <rect width="30" height="30" fill="#DBDCE1" rx="15"/>
  <rect width="24" height="24" x="3" y="3" fill="#fff" stroke="#BFBFBF" rx="12"/>
  <path fill="#BFBFBF" d="M18.483 21.994h-.565c-.436-.012-.733-.354-.739-.855 0-.412 0-.406.35-.453.68-.095 1.367-.195 2.036-.371.168-.048.273-.036.244.223-.023.2 0 .407 0 .607-.012.507-.308.843-.745.855h-.587l.006-.006ZM11.495 21.994c-.197 0-.39.006-.587 0-.402-.018-.693-.348-.71-.813-.012-.242.006-.49 0-.73-.006-.166.058-.172.163-.148.663.171 1.344.271 2.019.371.011 0 .029 0 .04.006.134.018.344-.041.39.083.07.176.047.412 0 .618-.087.366-.343.595-.675.607-.21.006-.418 0-.628 0l-.012.006Z"/>
  <path fill="#BFBFBF" d="M22.282 10.75h-1.53c-.134 0-.181-.024-.175-.172.011-.447 0-.89 0-1.337 0-.1-.012-.16-.123-.206a13.765 13.765 0 0 0-4.369-1.002 15.277 15.277 0 0 0-3.48.177c-1.029.165-2.036.43-3.019.807-.122.047-.163.112-.163.247.012.436 0 .878.006 1.314 0 .142-.04.177-.174.171-.512-.006-1.019 0-1.53 0-.408 0-.71.289-.716.695a60.536 60.536 0 0 0 0 2.056c0 .377.262.649.628.696.157.023.32.017.477 0a.69.69 0 0 0 .594-.684v-.595c0-.477 0-.465.477-.477.192-.006.238.053.238.242-.006 2.362 0 4.719 0 7.081 0 .318.053.389.361.466 1.396.347 2.816.524 4.259.583a22.242 22.242 0 0 0 6.179-.595c.296-.07.355-.147.355-.454V13c0-.183-.082-.43.035-.525.11-.094.343-.023.523-.035.122-.012.151.035.151.153-.005.306-.005.607 0 .913a.7.7 0 0 0 .594.69c.157.023.32.03.477.005.373-.047.628-.318.634-.695.012-.683.012-1.372 0-2.056-.006-.412-.314-.695-.715-.695l.006-.006Zm-3.12 5.85a15.465 15.465 0 0 1-4.223.488 19.674 19.674 0 0 1-4.061-.483c-.186-.041-.256-.1-.25-.312.017-.86.005-1.726.005-2.586V11.12c0-.36.105-.471.46-.471h7.808c.35 0 .46.118.46.465v5.214c0 .171-.059.224-.204.265l.006.006Z"/>
  <path fill="#fff" d="M11.05 19.496a.862.862 0 0 1-.86-.89c0-.483.39-.866.878-.86.483 0 .879.4.867.872a.882.882 0 0 1-.884.878ZM18.94 19.496a.86.86 0 0 1-.873-.884.867.867 0 0 1 .896-.866c.477.006.85.4.843.896 0 .477-.39.86-.867.854Z"/>
</svg>
